resources/haticons/SVG/haxe.svg

<!-- Generated by IcoMoon.io -->
<svg version="1.1" xmlns="http://www.w3.org/2000/svg" width="24" height="24" viewBox="0 0 24 24">
<title>haxe</title>
<path fill="#ea8220" d="M23.784 0c-0.002-0-0.004-0-0.006-0-0.013 0-0.026 0.001-0.038 0.003l0.001-0h-5.853c-0.001 0-0.001 0-0.002 0-0.036 0-0.070 0.009-0.099 0.024l0.001-0.001-5.788 2.892-5.79-2.892c-0.029-0.014-0.062-0.023-0.098-0.023h-5.874c-0.004-0-0.008-0-0.013-0s-0.009 0-0.014 0l0.001-0c-0.118 0.005-0.213 0.102-0.213 0.221 0 0.012 0.001 0.025 0.003 0.036l-0-0.001v5.853c0 0.036 0.009 0.071 0.025 0.101l-0.001-0.001 2.894 5.785-2.894 5.793c-0.015 0.029-0.024 0.063-0.024 0.099v5.84c-0.002 0.010-0.003 0.022-0.003 0.033 0 0.016 0.002 0.031 0.005 0.046l-0-0.001c0.015 0.109 0.107 0.193 0.219 0.193 0.012 0 0.024-0.001 0.035-0.003l-0.001 0h5.855c0 0 0.001 0 0.001 0 0.036 0 0.070-0.009 0.099-0.024l-0.001 0.001 5.789-2.898 5.789 2.898c0.029 0.015 0.062 0.023 0.098 0.023 0 0 0.001 0 0.001 0h5.877c0.004 0 0.009 0 0.014 0 0.122 0 0.221-0.099 0.221-0.221 0-0.013-0.001-0.025-0.003-0.038l0 0.001v-5.85c0-0.001 0-0.001 0-0.002 0-0.036-0.009-0.070-0.024-0.099l0.001 0.001-2.895-5.792 2.895-5.786c0.015-0.029 0.023-0.062 0.023-0.098 0-0 0-0.001 0-0.001v0-5.846c0.002-0.011 0.003-0.025 0.003-0.038 0-0.021-0.003-0.042-0.009-0.062l0 0.002c-0.024-0.096-0.107-0.166-0.208-0.169h-0zM2.022 0.445h4.038l4.038 2.017zM17.94 0.445h4.038l-8.075 2.017zM0.528 0.528l11.039 2.76-8.28 8.275-0.238-0.953zM23.47 0.535l-2.76 11.031-8.277-8.279zM23.554 2.022v4.038l-2.019 4.035zM0.444 2.025l2.021 8.073-2.020-4.038zM12 3.48l8.52 8.52-8.517 8.516-8.523-8.516zM20.712 12.432l0.088 0.351 2.672 10.688-11.040-2.76zM3.288 12.432l8.274 8.274-11.031 2.754 0.266-1.065zM21.535 13.898l2.020 4.042v4.027zM2.465 13.898l-2.020 8.080v-4.038zM10.091 21.536l-4.032 2.018h-4.039zM13.909 21.536l8.071 2.018h-4.040z"></path>
</svg>

<svg xmlns="http://www.w3.org/2000/svg" width="24" height="24"><path fill="#ea8220" d="M23.784 0h-.006a.234.234 0 0 0-.038.003h.001H17.886a.216.216 0 0 0-.099.024l.001-.001L12 2.918 6.21.026a.224.224 0 0 0-.098-.023H.211h.001a.222.222 0 0 0-.21.257V.259v5.853c0 .036.009.071.025.101l-.001-.001 2.894 5.785L.026 17.79a.216.216 0 0 0-.024.099v5.84a.231.231 0 0 0 .002.079v-.001a.222.222 0 0 0 .254.19H.257 6.113c.036 0 .07-.009.099-.024l-.001.001L12 21.076l5.789 2.898a.211.211 0 0 0 .098.023h5.892a.221.221 0 0 0 .218-.259v.001-5.85-.002a.216.216 0 0 0-.024-.099l.001.001-2.895-5.792 2.895-5.786a.211.211 0 0 0 .023-.098V.266a.225.225 0 0 0-.006-.1v.002a.22.22 0 0 0-.208-.169zM2.022.445H6.06l4.038 2.017zm15.918 0h4.038l-8.075 2.017zM.528.528l11.039 2.76-8.28 8.275-.238-.953zM23.47.535l-2.76 11.031-8.277-8.279zm.084 1.487V6.06l-2.019 4.035zm-23.11.003l2.021 8.073L.445 6.06zM12 3.48L20.52 12l-8.517 8.516L3.48 12zm8.712 8.952l.088.351 2.672 10.688-11.04-2.76zm-17.424 0l8.274 8.274L.531 23.46l.266-1.065zm18.247 1.466l2.02 4.042v4.027zm-19.07 0l-2.02 8.08V17.94zm7.626 7.638l-4.032 2.018H2.02zm3.818 0l8.071 2.018h-4.04z"/></svg>
